images/illus_security.svg

<svg width="200" height="200" viewBox="0 0 200 200" fill="none" xmlns="http://www.w3.org/2000/svg">
<g id="illus_security">
<path id="Fill 2" fill-rule="evenodd" clip-rule="evenodd" d="M85.4834 66.4346C85.4834 65.0206 84.6484 64.3446 83.6274 64.9346L83.6264 62.3626C83.6264 58.1186 81.1194 56.0926 78.0564 57.8606C74.9934 59.6276 72.4874 64.5466 72.4884 68.7906V71.3636C71.4674 71.9536 70.6324 73.5926 70.6324 75.0066L70.6334 87.8686C70.6334 89.2826 71.4694 89.9576 72.4904 89.3686L83.6294 82.9396C84.6504 82.3496 85.4844 80.7096 85.4844 79.2956L85.4834 66.4346ZM95.6344 47.7956C95.6384 86.2966 78.0614 101.587 78.0614 101.587C78.0614 101.587 60.4544 106.605 60.4494 68.1046C60.4494 66.8276 61.3774 63.6286 63.2024 62.5766C72.3884 57.2736 76.7044 47.0656 78.0554 46.2866C79.4064 45.5056 83.4564 50.8846 91.9384 45.9896C93.7954 44.9176 95.6334 45.2226 95.6344 47.7956V47.7956ZM78.0564 60.4326C76.0144 61.6116 74.3444 64.8906 74.3444 67.7196V70.2916L81.7704 66.0056V63.4336C81.7704 60.6046 80.0984 59.2536 78.0564 60.4326V60.4326ZM80.8434 74.2576C80.8434 75.9356 80.0664 77.7966 78.9874 78.9516V81.7596C78.9874 82.4666 78.5694 83.2876 78.0594 83.5816C77.5484 83.8756 77.1304 83.5386 77.1304 82.8306V80.0226C76.0514 80.1146 75.2744 79.1506 75.2744 77.4726C75.2734 75.3416 76.5204 72.8946 78.0584 72.0066C79.5954 71.1196 80.8424 72.1266 80.8434 74.2576V74.2576Z" fill="#E0B475"/>
<path id="Fill 4" opacity="0.5" fill-rule="evenodd" clip-rule="evenodd" d="M132.201 134.992C131.724 135.266 130.945 135.266 130.469 134.992L127.958 133.542C127.482 133.266 127.482 132.816 127.958 132.542L128.347 132.316C128.824 132.042 129.603 132.042 130.079 132.316L132.59 133.766C133.067 134.042 133.067 134.492 132.59 134.766L132.201 134.992ZM139.307 132.929C139.201 132.766 138.723 132.408 138.247 132.134L110.867 116.321C110.39 116.046 110 115.371 110 114.821V108.9C110 108.349 109.55 107.9 109 107.9H107C106.451 107.9 106 108.349 106 108.9V112.511C106 113.06 105.814 113.403 105.586 113.271C105.358 113.139 104.941 112.981 104.659 112.92C104.377 112.858 103.368 113.258 102.892 113.532L97.5527 116.616C97.0757 116.89 96.5987 117.249 96.4917 117.412C96.3847 117.575 97.0757 118.158 97.5527 118.432L105.134 122.811C105.611 123.086 106 123.762 106 124.311V125.578C106 126.128 105.611 126.353 105.134 126.078L94.7237 120.066C94.2477 119.791 93.6267 119.515 93.3457 119.454C93.0637 119.391 92.0547 119.791 91.5777 120.066L86.2387 123.149C85.7627 123.425 85.2847 123.783 85.1787 123.945C85.0717 124.108 85.7627 124.691 86.2387 124.967L105.134 135.879C105.611 136.153 106 136.829 106 137.379V138.645C106 139.195 105.611 139.421 105.134 139.145L83.4097 126.599C82.9337 126.325 82.3137 126.049 82.0317 125.987C81.7497 125.926 80.7407 126.325 80.2637 126.599L74.9247 129.683C74.4487 129.958 73.9717 130.316 73.8647 130.479C73.7577 130.642 74.4487 131.224 74.9247 131.5L105.134 148.946C105.611 149.221 106 149.895 106 150.446V153.099C106 153.65 106.451 154.099 107 154.099H109C109.55 154.099 110 153.65 110 153.099V151.263C110 150.713 110.39 150.038 110.867 149.763L115.619 147.017C116.096 146.742 116.573 146.384 116.68 146.221C116.787 146.058 116.096 145.475 115.619 145.2L110.867 142.456C110.39 142.18 110 141.506 110 140.955V139.688C110 139.138 110.39 138.914 110.867 139.188L118.448 143.567C118.924 143.842 119.545 144.118 119.826 144.18C120.109 144.241 121.118 143.842 121.594 143.567L126.933 140.483C127.409 140.209 127.887 139.85 127.994 139.687C128.101 139.524 127.409 138.942 126.933 138.667L110.867 129.388C110.39 129.113 110 128.438 110 127.888V126.621C110 126.071 110.39 125.846 110.867 126.121L129.762 137.033C130.238 137.308 130.858 137.584 131.14 137.645C131.422 137.708 132.431 137.308 132.908 137.033L138.247 133.95C138.723 133.675 139.414 133.093 139.307 132.929V132.929Z" fill="#E0B475"/>
</g>
</svg>

<svg width="200" height="200" xmlns="http://www.w3.org/2000/svg"><g fill="none" fill-rule="evenodd"><path d="M0 200h200V0H0z"/><path d="M85.483 66.435c0-1.414-.835-2.09-1.856-1.5v-2.572c0-4.244-2.508-6.27-5.57-4.502-3.064 1.767-5.57 6.686-5.569 10.93v2.573c-1.02.59-1.856 2.229-1.856 3.643l.001 12.862c0 1.414.836 2.089 1.857 1.5l11.14-6.43c1.02-.59 1.854-2.23 1.854-3.643V66.435zm10.151-18.64c.004 38.502-17.573 53.792-17.573 53.792s-17.607 5.018-17.612-33.482c0-1.277.928-4.476 2.753-5.528 9.186-5.303 13.502-15.511 14.853-16.29 1.351-.781 5.401 4.598 13.883-.297 1.857-1.072 3.695-.767 3.696 1.806zM78.056 60.434c-2.042 1.179-3.712 4.458-3.712 7.287v2.572l7.426-4.286v-2.572c0-2.83-1.672-4.18-3.714-3.001zm2.787 13.825c0 1.678-.777 3.539-1.856 4.694v2.808c0 .707-.418 1.528-.928 1.822-.51.294-.929-.043-.929-.751v-2.808c-1.079.092-1.856-.872-1.856-2.55 0-2.131 1.246-4.578 2.784-5.466 1.537-.887 2.784.12 2.785 2.25z" fill="#E0B475"/><path d="M132.2 134.992c-.476.274-1.255.274-1.731 0l-2.511-1.45c-.476-.276-.476-.726 0-1l.389-.226c.477-.274 1.256-.274 1.732 0l2.51 1.45c.478.276.478.726 0 1l-.388.226zm7.107-2.063c-.106-.163-.584-.52-1.06-.795l-27.38-15.813c-.477-.275-.867-.95-.867-1.5v-5.92c0-.552-.45-1-1-1h-2c-.55 0-1 .448-1 1v3.61c0 .55-.186.892-.414.76a3.844 3.844 0 0 0-.927-.35c-.282-.063-1.291.337-1.767.611l-5.34 3.084c-.476.274-.953.633-1.06.796-.107.163.584.746 1.06 1.02l7.582 4.38c.477.274.866.95.866 1.5v1.266c0 .55-.39.775-.866.5l-10.41-6.012c-.476-.275-1.097-.55-1.378-.612-.282-.063-1.291.337-1.768.612l-5.34 3.083c-.475.276-.953.634-1.06.796-.106.163.585.746 1.06 1.022l18.896 10.912c.477.274.866.95.866 1.5v1.266c0 .55-.39.776-.866.5L83.41 126.6c-.476-.274-1.096-.55-1.378-.612-.282-.06-1.291.338-1.768.612l-5.34 3.084c-.475.275-.952.633-1.06.796-.106.163.585.745 1.06 1.021l30.21 17.446c.477.275.866.95.866 1.5v2.653c0 .551.45 1 1 1h2c.55 0 1-.449 1-1v-1.836c0-.55.39-1.225.867-1.5l4.752-2.746c.477-.275.954-.633 1.06-.796.108-.163-.583-.746-1.06-1.02l-4.752-2.745c-.477-.276-.867-.95-.867-1.5v-1.268c0-.55.39-.774.867-.5l7.58 4.38c.477.274 1.098.55 1.379.612.283.061 1.292-.338 1.768-.613l5.339-3.084c.476-.274.954-.633 1.06-.796.108-.163-.584-.745-1.06-1.02l-16.066-9.279c-.477-.275-.867-.95-.867-1.5v-1.267c0-.55.39-.775.867-.5l18.895 10.912c.476.275 1.096.551 1.378.612.282.063 1.29-.337 1.768-.612l5.339-3.083c.476-.275 1.167-.857 1.06-1.02z" fill="#E0B475" opacity=".5"/></g></svg>
